docs/aur-badge.svg

<svg xmlns="http://www.w3.org/2000/svg" style="isolation:isolate" width="182" height="56">
   <defs>
      <clipPath id="prefix__a">
         <path d="M0 0h182v56H0z" />
      </clipPath>
   </defs>
   <g clip-path="url(#prefix__a)">
      <!-- <path d="M2.5.5h178a2 2 0 012 2v52a2 2 0 01-2 2H2.5a2 2 0" fill="#252525" stroke="#FFF" stroke-width="2"/> -->
      <rect x="0" y="0" width="182" height="56" fill="#252525" stroke="#FFF" stroke-width="1" rx="0" />
      
      <g fill-rule="evenodd" fill="#FFF">
         <path
            d="M60.898 13.777c-2.343-.003-4.288.477-5.04.739l-.775 4.181c-.002.015 3.854-1.028 5.552-.967 2.812.101 3.071 1.075 3.021 2.389.048.077-.725-1.188-3.158-1.23-3.068-.053-7.4 1.087-7.394 5.719-.082 5.21 3.893 6.743 6.6 6.771 2.434-.044 3.575-.921 4.2-1.391.822-.859 1.761-1.723 2.657-2.759-.847 1.541-1.583 2.606-2.348 3.422v.688l3.7-.623.025-10.056c-.037-1.423.816-6.869-7.04-6.883zm-.531 8.756c1.533.021 3.292.777 3.295 2.596.007 1.655-2.073 2.545-3.427 2.531-1.354-.014-3.15-1.064-3.158-2.678.026-1.442 1.694-2.486 3.29-2.449zM70.378 14.707l-.026 16.653 4.31-.831.008-9.442c.001-1.406 2.009-3.048 4.528-3.022.535-.968 1.54-3.44 1.785-4.003-5.629-.013-5.701 1.618-6.68 2.421-.01-1.531-.003-2.45-.003-2.45l-3.922.674zM94.632 16.893c-.041-.02-2.247-2.581-6.683-2.601-4.154-.069-8.814 1.542-8.888 8.508.036 6.125 4.476 8.518 8.912 8.565 4.747.049 6.636-2.969 6.749-3.043-.566-.492-2.688-2.594-2.688-2.594s-1.325 1.887-3.896 1.911c-2.572.025-4.807-1.988-4.839-4.795-.033-2.808 2.055-4.329 4.858-4.452 2.427 0 3.827 1.567 3.827 1.567l2.648-3.066zM100.065 8.879l-4.069.956.03 21.691 4.008-.724.046-10.207c.009-1.071 1.548-2.715 4.12-2.662 2.458.025 3.007 1.638 3.001 1.842l.071 11.817 3.952-.698.015-12.531c.026-1.206-2.641-3.753-6.928-3.771-2.038.004-3.166.465-3.74.805-.983.759-2.105 1.486-3.209 2.414 1.02-1.31 1.877-2.216 2.713-2.89l-.01-6.042z" />
      </g>
      <g fill-rule="evenodd" fill="#1793D1">
         <path
            d="M114.673 9.441l1.835-.459.087 21.868-1.865.318-.057-21.727zM119.663 15.968l1.608-.716.014 15.68-1.554.321-.068-15.285zm-.383-5.654l1.297-1.059 1.078 1.199-1.298 1.086-1.077-1.226zM124.296 15.682l1.835-.374.009 3.278c0 .141 1.008-3.662 5.868-3.577 4.719.026 5.491 3.679 5.465 4.498l.058 11.527-1.609.35-.009-11.386c.019-.333-.735-3.145-4.07-3.155-3.334-.01-5.644 2.422-5.64 3.975l.026 10.03-1.864.487-.069-15.653zM153.547 31.117l-1.836.375-.008-3.278c0-.141-1.009 3.662-5.868 3.577-4.719-.026-5.491-3.679-5.465-4.498l-.059-11.528 1.95-.393.031 11.386c0 .311.373 3.189 3.707 3.199 3.335.01 5.67-2.008 5.687-5.046l-.024-8.983 1.815-.464.07 15.653zM157.144 15.553l-1.287 1.007 4.935 6.458-5.263 7.46 1.365 1.014 4.947-6.929 5.107 7.093 1.263-1.007-5.473-7.584 4.366-6.132-1.342-1.136-3.977 5.675-4.641-5.919z" />
      </g>
      <path
         d="M33.112 3.879c-2.147 5.264-3.442 8.708-5.833 13.816 1.466 1.553 3.265 3.363 6.187 5.406-3.141-1.292-5.284-2.59-6.885-3.937C23.521 25.549 18.728 34.643 9 52.121c7.645-4.414 13.572-7.135 19.095-8.173a13.965 13.965 0 01-.362-3.275l.009-.245c.121-4.898 2.669-8.665 5.688-8.409 3.018.255 5.364 4.436 5.243 9.334a13.819 13.819 0 01-.309 2.631c5.464 1.069 11.327 3.783 18.869 8.137-1.487-2.738-2.814-5.206-4.082-7.556-1.997-1.548-4.079-3.562-8.328-5.743 2.92.759 5.011 1.634 6.641 2.613C38.575 17.439 37.532 14.251 33.112 3.879z"
         fill-rule="evenodd" fill="#1793D1" />
      <g fill="#1793D1">
         <path
            d="M170.614 30.156v-1.354h-.505v-.181h1.216v.181h-.508v1.354h-.203zM171.536 30.156v-1.535h.306l.363 1.087c.033.101.058.176.073.227a8.63 8.63 0 01.082-.246l.367-1.068H173v1.535h-.196v-1.285l-.446 1.285h-.183l-.443-1.307v1.307h-.196z" />
      </g>
      <g fill="#1793D1">
         <path
            d="M57.471 47.815v-1.322h-.494v-.177h1.189v.177h-.496v1.322h-.199zM58.372 47.815v-1.499h.299l.355 1.061.072.222c.017-.054.043-.134.079-.24l.359-1.043h.267v1.499h-.191V46.56l-.436 1.255h-.179l-.433-1.276v1.276h-.192" />
      </g>
      <g clip-path="url(#prefix__b)"><text transform="translate(95.023 43.899)" font-family="sans-serif"
            font-weight="700" font-size="10" fill="#fff">user repository</text></g>
      <defs>
         <clipPath id="prefix__b">
            <path transform="translate(87 32.142)" d="M0 0h86v14.98H0z" />
         </clipPath>
      </defs>
   </g>
</svg>

<?xml version="1.0" encoding="UTF-8" standalone="no"?>
<!-- Generator: Gravit.io --><svg xmlns="http://www.w3.org/2000/svg" xmlns:xlink="http://www.w3.org/1999/xlink"
   style="isolation:isolate" viewBox="0 0 182 56" width="182px" height="56px">
   <defs>
      <clipPath id="_clipPath_tR1uglJ1Zei76xP861DY1TsjAiQWS9qF">
         <rect width="182" height="56" />
      </clipPath>
   </defs>
   <g clip-path="url(#_clipPath_tR1uglJ1Zei76xP861DY1TsjAiQWS9qF)">
      <path
         d="M 2.5 0.5 L 180.5 0.5 C 181.604 0.5 182.5 1.396 182.5 2.5 L 182.5 54.5 C 182.5 55.604 181.604 56.5 180.5 56.5 L 2.5 56.5 C 1.396 56.5 0.5 55.604 0.5 54.5 L 0.5 2.5 C 0.5 1.396 1.396 0.5 2.5 0.5 Z"
         style="stroke:none;fill:#252525;stroke-miterlimit:10;" />
      <path
         d="M 2.5 0.5 L 180.5 0.5 C 181.604 0.5 182.5 1.396 182.5 2.5 L 182.5 54.5 C 182.5 55.604 181.604 56.5 180.5 56.5 L 2.5 56.5 C 1.396 56.5 0.5 55.604 0.5 54.5 L 0.5 2.5 C 0.5 1.396 1.396 0.5 2.5 0.5 Z"
         style="fill:none;stroke:#CDCDCD;stroke-width:1;stroke-miterlimit:2;" />
      <g>
         <g>
            <path
               d=" M 60.898 13.777 C 58.555 13.774 56.61 14.254 55.858 14.516 L 55.083 18.697 C 55.081 18.712 58.937 17.669 60.635 17.73 C 63.447 17.831 63.706 18.805 63.656 20.119 C 63.704 20.196 62.931 18.931 60.498 18.889 C 57.43 18.836 53.098 19.976 53.104 24.608 C 53.022 29.818 56.997 31.351 59.704 31.379 C 62.138 31.335 63.279 30.458 63.904 29.988 C 64.726 29.129 65.665 28.265 66.561 27.229 C 65.714 28.77 64.978 29.835 64.213 30.651 L 64.213 31.339 L 67.913 30.716 L 67.938 20.66 C 67.901 19.237 68.754 13.791 60.898 13.777 Z  M 60.367 22.533 C 61.9 22.554 63.659 23.31 63.662 25.129 C 63.669 26.784 61.589 27.674 60.235 27.66 C 58.881 27.646 57.085 26.596 57.077 24.982 C 57.103 23.54 58.771 22.496 60.367 22.533 Z "
               fill-rule="evenodd" fill="rgb(255,255,255)" />
            <path
               d=" M 70.378 14.707 L 70.352 31.36 L 74.662 30.529 L 74.67 21.087 C 74.671 19.681 76.679 18.039 79.198 18.065 C 79.733 17.097 80.738 14.625 80.983 14.062 C 75.354 14.049 75.282 15.68 74.303 16.483 C 74.293 14.952 74.3 14.033 74.3 14.033 L 70.378 14.707 L 70.378 14.707 Z "
               fill-rule="evenodd" fill="rgb(255,255,255)" />
            <path
               d=" M 94.632 16.893 C 94.591 16.873 92.385 14.312 87.949 14.292 C 83.795 14.223 79.135 15.834 79.061 22.8 C 79.097 28.925 83.537 31.318 87.973 31.365 C 92.72 31.414 94.609 28.396 94.722 28.322 C 94.156 27.83 92.034 25.728 92.034 25.728 C 92.034 25.728 90.709 27.615 88.138 27.639 C 85.566 27.664 83.331 25.651 83.299 22.844 C 83.266 20.036 85.354 18.515 88.157 18.392 C 90.584 18.392 91.984 19.959 91.984 19.959 L 94.632 16.893 L 94.632 16.893 Z "
               fill-rule="evenodd" fill="rgb(255,255,255)" />
            <path
               d=" M 100.065 8.879 L 95.996 9.835 L 96.026 31.526 L 100.034 30.802 L 100.08 20.595 C 100.089 19.524 101.628 17.88 104.2 17.933 C 106.658 17.958 107.207 19.571 107.201 19.775 L 107.272 31.592 L 111.224 30.894 L 111.239 18.363 C 111.265 17.157 108.598 14.61 104.311 14.592 C 102.273 14.596 101.145 15.057 100.571 15.397 C 99.588 16.156 98.466 16.883 97.362 17.811 C 98.382 16.501 99.239 15.595 100.075 14.921 L 100.065 8.879 L 100.065 8.879 Z "
               fill-rule="evenodd" fill="rgb(255,255,255)" />
         </g>
         <g>
            <path
               d=" M 114.673 9.441 L 116.508 8.982 L 116.595 30.85 L 114.73 31.168 L 114.673 9.441 L 114.673 9.441 Z "
               fill-rule="evenodd" fill="rgb(23,147,209)" />
            <path
               d=" M 119.663 15.968 L 121.271 15.252 L 121.285 30.932 L 119.731 31.253 L 119.663 15.968 L 119.663 15.968 Z  M 119.28 10.314 L 120.577 9.255 L 121.655 10.454 L 120.357 11.54 L 119.28 10.314 L 119.28 10.314 Z "
               fill-rule="evenodd" fill="rgb(23,147,209)" />
            <path
               d=" M 124.296 15.682 L 126.131 15.308 L 126.14 18.586 C 126.14 18.727 127.148 14.924 132.008 15.009 C 136.727 15.035 137.499 18.688 137.473 19.507 L 137.531 31.034 L 135.922 31.384 L 135.913 19.998 C 135.932 19.665 135.178 16.853 131.843 16.843 C 128.509 16.833 126.199 19.265 126.203 20.818 L 126.229 30.848 L 124.365 31.335 L 124.296 15.682 L 124.296 15.682 Z "
               fill-rule="evenodd" fill="rgb(23,147,209)" />
            <path
               d=" M 153.547 31.117 L 151.711 31.492 L 151.703 28.214 C 151.703 28.073 150.694 31.876 145.835 31.791 C 141.116 31.765 140.344 28.112 140.37 27.293 L 140.311 15.765 L 142.261 15.372 L 142.292 26.758 C 142.292 27.069 142.665 29.947 145.999 29.957 C 149.334 29.967 151.669 27.949 151.686 24.911 L 151.662 15.928 L 153.477 15.464 L 153.547 31.117 L 153.547 31.117 Z "
               fill-rule="evenodd" fill="rgb(23,147,209)" />
            <path
               d=" M 157.144 15.553 L 155.857 16.56 L 160.792 23.018 L 155.529 30.478 L 156.894 31.492 L 161.841 24.563 L 166.948 31.656 L 168.211 30.649 L 162.738 23.065 L 167.104 16.933 L 165.762 15.797 L 161.785 21.472 L 157.144 15.553 L 157.144 15.553 Z "
               fill-rule="evenodd" fill="rgb(23,147,209)" />
         </g>
         <path
            d=" M 33.112 3.879 C 30.965 9.143 29.67 12.587 27.279 17.695 C 28.745 19.248 30.544 21.058 33.466 23.101 C 30.325 21.809 28.182 20.511 26.581 19.164 C 23.521 25.549 18.728 34.643 9 52.121 C 16.645 47.707 22.572 44.986 28.095 43.948 C 27.858 42.928 27.723 41.824 27.733 40.673 L 27.742 40.428 C 27.863 35.53 30.411 31.763 33.43 32.019 C 36.448 32.274 38.794 36.455 38.673 41.353 C 38.65 42.275 38.546 43.162 38.364 43.984 C 43.828 45.053 49.691 47.767 57.233 52.121 C 55.746 49.383 54.419 46.915 53.151 44.565 C 51.154 43.017 49.072 41.003 44.823 38.822 C 47.743 39.581 49.834 40.456 51.464 41.435 C 38.575 17.439 37.532 14.251 33.112 3.879 Z "
            fill-rule="evenodd" fill="rgb(23,147,209)" />
         <g>
            <path
               d=" M 170.614 30.156 L 170.614 28.802 L 170.109 28.802 L 170.109 28.621 L 171.325 28.621 L 171.325 28.802 L 170.817 28.802 L 170.817 30.156 L 170.614 30.156 Z "
               fill="rgb(23,147,209)" />
            <path
               d=" M 171.536 30.156 L 171.536 28.621 L 171.842 28.621 L 172.205 29.708 C 172.238 29.809 172.263 29.884 172.278 29.935 C 172.295 29.879 172.323 29.797 172.36 29.689 L 172.727 28.621 L 173 28.621 L 173 30.156 L 172.804 30.156 L 172.804 28.871 L 172.358 30.156 L 172.175 30.156 L 171.732 28.849 L 171.732 30.156 L 171.536 30.156 Z "
               fill="rgb(23,147,209)" />
         </g>
         <g>
            <path
               d=" M 57.471 47.815 L 57.471 46.493 L 56.977 46.493 L 56.977 46.316 L 58.166 46.316 L 58.166 46.493 L 57.67 46.493 L 57.67 47.815 L 57.471 47.815 Z "
               fill="rgb(23,147,209)" />
            <path
               d=" M 58.372 47.815 L 58.372 46.316 L 58.671 46.316 L 59.026 47.377 C 59.059 47.476 59.083 47.55 59.098 47.599 C 59.115 47.545 59.141 47.465 59.177 47.359 L 59.536 46.316 L 59.803 46.316 L 59.803 47.815 L 59.612 47.815 L 59.612 46.56 L 59.176 47.815 L 58.997 47.815 L 58.564 46.539 L 58.564 47.815 L 58.372 47.815"
               fill="rgb(23,147,209)" />
         </g>
      </g>
      <g clip-path="url(#_clipPath_NvFIpNfWUS6M4fZAtfyVzggsKR3URDoi)"><text transform="matrix(1,0,0,1,87.023,43.899)"
            style="font-family:'Open Sans';font-weight:700;font-size:11px;font-style:normal;fill:#ffffff;stroke:none;">user
            repository</text></g>
      <defs>
         <clipPath id="_clipPath_NvFIpNfWUS6M4fZAtfyVzggsKR3URDoi">
            <rect x="0" y="0" width="86" height="14.98" transform="matrix(1,0,0,1,87,32.142)" />
         </clipPath>
      </defs>
   </g>
</svg>
